client/public/img/game/winter/obstacles/bunker_entrance.svg

<?xml version="1.0" encoding="UTF-8" standalone="no"?>
<!-- Created with Inkscape (http://www.inkscape.org/) -->

<svg
   width="259.33099"
   height="335.87665"
   viewBox="0 0 68.614658 88.867363"
   version="1.1"
   id="svg1"
   xml:space="preserve"
   xmlns="http://www.w3.org/2000/svg"
   xmlns:svg="http://www.w3.org/2000/svg"><defs
     id="defs1" /><g
     id="layer1"><path
       id="rect3-8-3-8-9-5-2-8"
       style="display:inline;fill:#4f4f4f;fill-opacity:1;stroke:none;stroke-width:2.38125;stroke-linecap:round;stroke-dasharray:none;stroke-opacity:1"
       d="M 1.1906263,1.208814 H 67.132936 V 60.779063 H 1.1906263 Z" /><g
       id="g15-5-2-8-9-0-5"
       transform="matrix(0.77559396,0,0,0.82411198,-29.257422,-54.646495)"
       style="display:inline;stroke-width:2.97848;stroke-dasharray:none"><g
         id="g96-4"><path
           id="rect12-8-7-7-5-2-7-8"
           style="display:inline;fill:#252525;stroke-width:2.38125;stroke-linecap:round;stroke-linejoin:round;stroke-dasharray:none"
           d="m 209.88155,-537.24054 v 1.93014 h -44.3657 v -1.93014 z"
           transform="matrix(1.2893365,0,0,1.2134273,-149.06491,787.05768)" /><path
           id="rect11-5-5-4-6-0-0"
           style="fill:#383838;fill-opacity:1;stroke-width:2.97848;stroke-linecap:round;stroke-linejoin:round;stroke-dasharray:none"
           d="m 47.435718,150.27649 h 72.452012 v 10.17238 H 47.435718 Z" /><path
           id="rect12-8-1-9-2-1-3"
           style="fill:#242424;stroke-width:3.28097;stroke-linecap:round;stroke-linejoin:round;stroke-dasharray:none"
           d="m 120.61887,147.90118 v 2.88947 H 45.529738 v -2.88947 z" /><path
           id="rect11-5-2-2-7-2-4-7"
           style="fill:#2b2b2b;fill-opacity:1;stroke-width:2.97848;stroke-linecap:round;stroke-linejoin:round;stroke-dasharray:none"
           d="m 47.435718,138.02661 h 72.452012 v 10.17238 H 47.435718 Z" /><path
           id="rect11-6-3-7-8-1"
           style="fill:#454545;fill-opacity:1;stroke-width:2.97848;stroke-linecap:round;stroke-linejoin:round;stroke-dasharray:none"
           d="m 47.435728,162.52637 h 72.452012 v 10.17238 H 47.435728 Z" /><path
           id="rect12-3-6-4-7-1"
           style="fill:#2b2b2b;stroke-width:3.28097;stroke-linecap:round;stroke-linejoin:round;stroke-dasharray:none"
           d="m 119.05244,160.41565 v 2.88947 H 47.291998 v -2.88947 z" /></g></g><path
       id="rect4-1-7-0-6-6-7-2"
       style="display:inline;fill:#383838;fill-opacity:1;stroke:#262626;stroke-width:2.38125;stroke-linecap:round;stroke-dasharray:none;stroke-opacity:1"
       d="m 3.094558,28.32014 h 62.4258 V 87.6766 h -62.4259 z" /><path
       style="fill:#c9d1d9;stroke:#a2a5c0;stroke-width:2.38125;stroke-linecap:round;stroke-linejoin:round;stroke-miterlimit:0;stroke-dasharray:none"
       d="m 16.754565,66.76344 c -0.216405,3.910028 0.329049,7.787399 0.329049,11.681182 0,10.592142 -12.0076928,-6.676048 -0.329049,-11.681182 z"
       id="path1" /><path
       style="fill:#c9d1d9;stroke:#a2a5c0;stroke-width:2.38125;stroke-linecap:round;stroke-linejoin:round;stroke-miterlimit:0;stroke-dasharray:none"
       d="m 48.082049,87.676613 h 9.665766 c -0.03006,-4.999987 -0.877428,-11.713641 -4.442139,-15.532974 -0.630497,-0.675532 -1.417263,-0.811108 -2.138808,-1.316189 -0.665953,-0.466167 -1.651627,-1.258196 -2.2622,-1.205564 z"
       id="path7" /><path
       id="rect4-1-7-0-6-6-7"
       style="display:inline;fill:#404040;fill-opacity:1;stroke:#262626;stroke-width:2.38125;stroke-linecap:round;stroke-dasharray:none;stroke-opacity:1"
       d="m 15.585258,28.32014 h 37.4444 V 87.6766 h -37.4445 z" /><path
       style="fill:#4f4f4f;fill-opacity:1;fill-rule:evenodd;stroke:#262626;stroke-width:2.38125;stroke-linecap:square;stroke-linejoin:round;stroke-dasharray:none;stroke-opacity:1"
       d="M 34.307458,87.6766 V 59.65685"
       id="path97" /><g
       id="g97"
       transform="translate(-145.34264,591.27644)"
       style="stroke-width:2.38125;stroke-dasharray:none"><rect
         style="fill:#4f4f4f;fill-opacity:1;fill-rule:evenodd;stroke:#262626;stroke-width:2.38125;stroke-linecap:square;stroke-linejoin:round;stroke-dasharray:none;stroke-opacity:1"
         id="rect97"
         width="10.690267"
         height="3.9385192"
         x="174.30493"
         y="-522.98212" /><rect
         style="fill:#4f4f4f;fill-opacity:1;fill-rule:evenodd;stroke:#262626;stroke-width:2.38125;stroke-linecap:square;stroke-linejoin:round;stroke-dasharray:none;stroke-opacity:1"
         id="rect97-3"
         width="10.690267"
         height="3.9385192"
         x="174.30493"
         y="-513.91595" /></g><path
       id="rect11-5-6-0-6-0-1-6"
       style="display:inline;fill:#242424;stroke-width:2.38125;stroke-linecap:round;stroke-linejoin:round;stroke-dasharray:none"
       d="m 20.512156,38.040143 h 44.63117 v 8.38317 h -44.63117 z" /><path
       id="rect12-8-4-01-3-7-8-8"
       style="display:inline;fill:#252525;stroke-width:2.38125;stroke-linecap:round;stroke-linejoin:round;stroke-dasharray:none"
       d="m 64.799226,36.109993 v 1.93016 h -43.94297 v -1.93016 z" /><path
       id="rect11-5-2-0-5-5-5-3-2"
       style="display:inline;fill:#242424;stroke-width:2.38125;stroke-linecap:round;stroke-linejoin:round;stroke-dasharray:none"
       d="m 20.512156,27.726823 h 44.63117 v 8.38318 h -44.63117 z" /><path
       id="rect11-29-2-6-1-9-6"
       style="display:inline;fill:#262626;stroke-width:2.38125;stroke-linecap:round;stroke-linejoin:round;stroke-dasharray:none"
       d="m 20.512156,48.353453 h 44.63117 v 8.38319 h -44.63117 z" /><path
       id="rect12-60-3-1-9-9-1"
       style="display:inline;fill:#252525;stroke-width:2.38125;stroke-linecap:round;stroke-linejoin:round;stroke-dasharray:none"
       d="m 64.799226,46.423313 v 1.93014 h -43.94297 v -1.93014 z" /><path
       id="rect1-0-9-7-8-3-8"
       style="display:inline;fill:#525252;fill-opacity:1;stroke:#262626;stroke-width:2.38125;stroke-linecap:round;stroke-dasharray:none;stroke-opacity:1;stroke-linejoin:round"
       d="m 60.567826,2.161284 h 6.85621 v 85.515458 h -6.85621 z" /><path
       id="rect1-9-2-5-8-0-6-3"
       style="display:inline;fill:#525252;fill-opacity:1;stroke:#262626;stroke-width:2.38125;stroke-linecap:round;stroke-dasharray:none;stroke-opacity:1;stroke-linejoin:round"
       d="m 1.1907263,2.161194 h 6.85621 v 85.515408 l -6.85631,5e-5 z" /><path
       id="rect3-9-8-9-7-9-5"
       style="display:inline;fill:#595959;fill-opacity:1;stroke:#262626;stroke-width:2.381;stroke-linecap:round;stroke-dasharray:none;stroke-opacity:1;stroke-linejoin:round"
       d="M 1.1907081,1.2088245 H 67.424106 V 64.551273 L 49.268114,60.779065 H 20.290229 L 1.1907081,64.551273 Z" /><path
       id="rect4-1-7-0-6-6-2"
       style="display:inline;fill:#666666;fill-opacity:1;stroke:#262626;stroke-width:2.38125;stroke-linecap:round;stroke-dasharray:none;stroke-opacity:1"
       d="M 20.290325,1.2088245 H 49.268114 V 60.56529 H 20.290229 Z" /><g
       id="g5-4-7-9-1-9-2"
       transform="matrix(0.79948566,0,0,0.82411198,-8.4235786,-54.242994)"
       style="stroke-width:2.93364;stroke-dasharray:none"><path
         id="rect5-8-9-4-4-3-0"
         style="fill:#262626;fill-opacity:1;stroke-width:2.93364;stroke-linecap:round;stroke-dasharray:none"
         transform="rotate(-90)"
         d="m -121.4191,11.659035 h 2.3012 v 83.244628 h -2.3012 z" /><path
         id="rect5-0-4-0-6-6-5-8"
         style="fill:#262626;fill-opacity:1;stroke-width:2.93364;stroke-linecap:round;stroke-dasharray:none"
         transform="rotate(-90)"
         d="m -87.935219,11.659031 h 2.3012 v 83.244632 h -2.3012 z" /></g><path
       style="fill:#c9d1d9;stroke:#a2a5c0;stroke-width:2.38125;stroke-linecap:round;stroke-linejoin:round;stroke-miterlimit:0;stroke-dasharray:none"
       d="m 55.992966,1.190625 11.43114,1.05e-5 0.02643,33.6030315 C 67.437415,33.483335 66.473326,32.180245 65.815121,31.051894 64.910965,29.501911 63.423475,28.015039 62.808339,26.374677 60.980702,21.500977 64.54229,15.543659 61.538809,9.5366966 58.929922,4.3189227 55.188235,7.5549891 55.992966,1.190625 Z"
       id="path2" /><path
       style="fill:#c9d1d9;stroke:#a2a5c0;stroke-width:2.38125;stroke-linecap:round;stroke-linejoin:round;stroke-miterlimit:0;stroke-dasharray:none"
       d="m 23.494881,27.748266 c -7.16757,8.362167 -14.5830288,6.501792 -14.5830288,19.241498 0,4.173087 3.2875588,6.407941 7.0889728,7.494058 2.062518,0.58929 7.847719,0.431968 10.127105,0 C 40.740639,51.714556 38.66158,36.922353 37.065202,20.456751 35.906326,8.5036986 27.624591,22.605538 23.494881,27.748266 Z"
       id="path3" /><path
       style="fill:#c9d1d9;stroke:#a2a5c0;stroke-width:2.38125;stroke-linecap:round;stroke-linejoin:round;stroke-miterlimit:0;stroke-dasharray:none"
       d="m 48.40756,39.900791 c 3.947994,2.868604 3.163634,6.424194 3.848299,10.532189 1.023493,6.140955 9.793848,2.992189 8.506769,-3.443216 C 59.1548,38.95063 44.85713,27.474288 48.40756,39.900791 Z"
       id="path4" /><path
       style="fill:#c9d1d9;stroke:#a2a5c0;stroke-width:2.38125;stroke-linecap:round;stroke-linejoin:round;stroke-miterlimit:0;stroke-dasharray:none"
       d="M 10.997491,1.190625 H 24.42863 c -0.457759,3.9537817 1.782992,7.8864912 1.110846,11.919367 -1.031759,6.190558 -10.24234,6.823374 -13.12818,8.987754 C 10.910633,23.223243 9.4210627,25.59291 8.2708699,26.743102 6.5865943,28.427378 3.1955833,26.422667 1.190625,27.708634 V 10.080412 C 1.8330149,9.5330069 2.6405956,9.581717 3.4235417,9.7774535 18.305535,13.497952 8.3399118,5.812254 10.997491,1.190625 Z"
       id="path5" /><path
       style="fill:#c9d1d9;stroke:#a2a5c0;stroke-width:2.38125;stroke-linecap:round;stroke-linejoin:round;stroke-miterlimit:0;stroke-dasharray:none"
       d="m 45.874602,72.974923 c 1.614589,1.546317 3.797094,4.598909 3.014006,7.094364 -1.261505,4.020005 -4.118908,2.728595 -6.130763,2.728595 -1.161065,0 -4.011243,0.126902 -4.795009,-1.746306 -2.221309,-4.230267 -2.497426,-11.646605 0.274001,-10.696111 0,0 6.023176,1.073139 7.637765,2.619458 z"
       id="path6" /></g></svg>

<svg xmlns="http://www.w3.org/2000/svg" xml:space="preserve" width="259.331" height="335.877" viewBox="0 0 68.615 88.867"><path d="M1.19 1.209h65.943v59.57H1.19Z" style="display:inline;fill:#4f4f4f;fill-opacity:1;stroke:none;stroke-width:2.38125;stroke-linecap:round;stroke-dasharray:none;stroke-opacity:1"/><g style="display:inline;stroke-width:2.97848;stroke-dasharray:none"><path d="M209.882-537.24v1.93h-44.366v-1.93z" style="display:inline;fill:#252525;stroke-width:2.38125;stroke-linecap:round;stroke-linejoin:round;stroke-dasharray:none" transform="translate(-144.871 593.977)"/><path d="M47.436 150.276h72.452v10.173H47.436Z" style="fill:#383838;fill-opacity:1;stroke-width:2.97848;stroke-linecap:round;stroke-linejoin:round;stroke-dasharray:none" transform="matrix(.7756 0 0 .82411 -29.257 -54.646)"/><path d="M120.619 147.901v2.89h-75.09v-2.89z" style="fill:#242424;stroke-width:3.28097;stroke-linecap:round;stroke-linejoin:round;stroke-dasharray:none" transform="matrix(.7756 0 0 .82411 -29.257 -54.646)"/><path d="M47.436 138.027h72.452v10.172H47.436Z" style="fill:#2b2b2b;fill-opacity:1;stroke-width:2.97848;stroke-linecap:round;stroke-linejoin:round;stroke-dasharray:none" transform="matrix(.7756 0 0 .82411 -29.257 -54.646)"/><path d="M47.436 162.526h72.452V172.7H47.436Z" style="fill:#454545;fill-opacity:1;stroke-width:2.97848;stroke-linecap:round;stroke-linejoin:round;stroke-dasharray:none" transform="matrix(.7756 0 0 .82411 -29.257 -54.646)"/><path d="M119.052 160.416v2.89h-71.76v-2.89z" style="fill:#2b2b2b;stroke-width:3.28097;stroke-linecap:round;stroke-linejoin:round;stroke-dasharray:none" transform="matrix(.7756 0 0 .82411 -29.257 -54.646)"/></g><path d="M3.095 28.32H65.52v59.357H3.094z" style="display:inline;fill:#383838;fill-opacity:1;stroke:#262626;stroke-width:2.38125;stroke-linecap:round;stroke-dasharray:none;stroke-opacity:1"/><path d="M16.755 66.763c-.217 3.91.329 7.788.329 11.682 0 10.592-12.008-6.676-.33-11.682M48.082 87.677h9.666c-.03-5-.878-11.714-4.442-15.533-.63-.676-1.418-.811-2.14-1.317-.665-.466-1.65-1.258-2.261-1.205z" style="fill:#c9d1d9;stroke:#a2a5c0;stroke-width:2.38125;stroke-linecap:round;stroke-linejoin:round;stroke-miterlimit:0;stroke-dasharray:none"/><path d="M15.585 28.32H53.03v59.357H15.585z" style="display:inline;fill:#404040;fill-opacity:1;stroke:#262626;stroke-width:2.38125;stroke-linecap:round;stroke-dasharray:none;stroke-opacity:1"/><path d="M34.307 87.677v-28.02" style="fill:#4f4f4f;fill-opacity:1;fill-rule:evenodd;stroke:#262626;stroke-width:2.38125;stroke-linecap:square;stroke-linejoin:round;stroke-dasharray:none;stroke-opacity:1"/><g style="stroke-width:2.38125;stroke-dasharray:none"><path d="M174.305-522.982h10.69v3.939h-10.69zM174.305-513.916h10.69v3.939h-10.69z" style="fill:#4f4f4f;fill-opacity:1;fill-rule:evenodd;stroke:#262626;stroke-width:2.38125;stroke-linecap:square;stroke-linejoin:round;stroke-dasharray:none;stroke-opacity:1" transform="translate(-145.343 591.276)"/></g><path d="M20.512 38.04h44.631v8.383h-44.63z" style="display:inline;fill:#242424;stroke-width:2.38125;stroke-linecap:round;stroke-linejoin:round;stroke-dasharray:none"/><path d="M64.8 36.11v1.93H20.855v-1.93z" style="display:inline;fill:#252525;stroke-width:2.38125;stroke-linecap:round;stroke-linejoin:round;stroke-dasharray:none"/><path d="M20.512 27.727h44.631v8.383h-44.63z" style="display:inline;fill:#242424;stroke-width:2.38125;stroke-linecap:round;stroke-linejoin:round;stroke-dasharray:none"/><path d="M20.512 48.353h44.631v8.384h-44.63z" style="display:inline;fill:#262626;stroke-width:2.38125;stroke-linecap:round;stroke-linejoin:round;stroke-dasharray:none"/><path d="M64.8 46.423v1.93H20.855v-1.93z" style="display:inline;fill:#252525;stroke-width:2.38125;stroke-linecap:round;stroke-linejoin:round;stroke-dasharray:none"/><path d="M60.568 2.161h6.856v85.516h-6.856zM1.19 2.161h6.857v85.516H1.19z" style="display:inline;fill:#525252;fill-opacity:1;stroke:#262626;stroke-width:2.38125;stroke-linecap:round;stroke-dasharray:none;stroke-opacity:1;stroke-linejoin:round"/><path d="M1.19 1.209h66.234V64.55L49.268 60.78H20.29l-19.1 3.772Z" style="display:inline;fill:#595959;fill-opacity:1;stroke:#262626;stroke-width:2.381;stroke-linecap:round;stroke-dasharray:none;stroke-opacity:1;stroke-linejoin:round"/><path d="M20.29 1.209h28.978v59.356H20.29Z" style="display:inline;fill:#666;fill-opacity:1;stroke:#262626;stroke-width:2.38125;stroke-linecap:round;stroke-dasharray:none;stroke-opacity:1"/><g style="stroke-width:2.93364;stroke-dasharray:none"><path d="M-121.42 11.659h2.302v83.245h-2.301zM-87.935 11.659h2.301v83.245h-2.301z" style="fill:#262626;fill-opacity:1;stroke-width:2.93364;stroke-linecap:round;stroke-dasharray:none" transform="matrix(0 -.82411 .79949 0 -8.424 -54.243)"/></g><path d="M55.993 1.19h11.431l.027 33.604c-.014-1.31-.978-2.614-1.636-3.742-.904-1.55-2.392-3.037-3.007-4.677-1.827-4.874 1.734-10.831-1.27-16.838-2.608-5.218-6.35-1.982-5.545-8.346M23.495 27.748C16.327 36.11 8.912 34.25 8.912 46.99c0 4.173 3.287 6.408 7.089 7.494 2.062.59 7.848.432 10.127 0 14.613-2.77 12.534-17.562 10.937-34.027-1.159-11.953-9.44 2.149-13.57 7.291M48.408 39.9c3.948 2.87 3.163 6.425 3.848 10.533 1.023 6.14 9.794 2.992 8.507-3.443-1.608-8.04-15.906-19.516-12.355-7.09M10.997 1.19H24.43c-.458 3.954 1.783 7.887 1.11 11.92-1.031 6.19-10.242 6.823-13.128 8.988-1.5 1.125-2.99 3.495-4.14 4.645-1.684 1.684-5.075-.32-7.08.966V10.08c.642-.547 1.45-.498 2.233-.303 14.882 3.721 4.916-3.965 7.573-8.586M45.875 72.975c1.614 1.546 3.797 4.599 3.014 7.094-1.262 4.02-4.12 2.729-6.131 2.729-1.161 0-4.011.127-4.795-1.746-2.221-4.23-2.498-11.647.274-10.697 0 0 6.023 1.074 7.638 2.62" style="fill:#c9d1d9;stroke:#a2a5c0;stroke-width:2.38125;stroke-linecap:round;stroke-linejoin:round;stroke-miterlimit:0;stroke-dasharray:none"/></svg>
